**kern	**dynam
*clefG2	*
*k[b-e-]	*
*B-:	*
*M2/4	*
=1	=1
4.ff	p
(>24ggLL	.
24ff	.
24ee-JJ)	.
=2	=2
4.dd	.
(>24ee-LL	.
24dd	.
24ccJJ)	.
=3	=3
8b-'L	.
8a'	.
8b-'	.
8cc'J	.
=4	=4
8dd'L	.
8ee-'	.
8dd'	.
8cc'J	.
=5	=5
8b-'L	.
8a'	.
8g'	.
8f'J	.
=6	=6
8e-ML	.
8dJ	.
4r	.
=7	=7
2r	.
=8	=8
(>16b-LL	f
16dd)	.
(>16ff	.
16bb-JJ)	.
(>16dddLL	.
16bb-)	.
(>16aa	.
16bb-JJ)	.
=9	=9
4ccc	.
4r	.
=10	=10
!!linebreak:original
(>16aLL	.
16cc)	.
(>16ff	.
16aaJJ)	.
(>16cccLL	.
16aa)	.
(>16gg	.
16aaJJ)	.
=11	=11
4bb-	.
4r	.
=12	=12
(>16gLL	.
16b-)	.
(>16een	.
16ggJJ)	.
(>16cccLL	.
16gg)	.
(>16ff	.
16ggJJ)	.
=13	=13
16aa'LL	.
(>16ff	.
16een	.
16ffJJ)	.
16bb-'LL	.
(>16ff	.
16ee	.
16ffJJ)	.
=14	=14
16ccc'LL	.
(>16ff	.
16een	.
16ffJJ)	.
16dd'LL	.
(>16ff	.
16ee	.
16ffJJ)	.
=15	=15
16cc'LL	.
(>16ff	.
16een	.
16ffJJ)	.
16dd'LL	.
(>16ff	.
16ee	.
16ffJJ)	.
=16	=16
(>16ccLL	.
16bb-	.
16aa	.
16ggJJ)	.
4ggT	.
=17	=17
!!linebreak:original
4ff	.
4r	.
=18	=18
2r	.
=19	=19
8r	.
8ffL	p
8ff	.
8ffJ	.
=20	=20
(>24eenLL	.
24ff	.
24ggJ)	.
8ffJ	.
8ggL	.
8aaJ	.
=21	=21
(>24ggLL	.
24aa	.
24bb-J)	.
8aaJ	.
4r	.
=22	=22
2r	.
=23	=23
8r	.
8ccL	f
8cc	.
8ccJ	.
=24	=24
(>24ddLL	.
24een	.
24ffJJ)	.
8a	.
(>24b-LL	.
24cc	.
24ddJJ)	.
8g	.
=25	=25
(>24aLL	.
24b-	.
24ccJJ)	.
8f	.
4gT	.
=26	=26
(<16fLL	.
16c)	.
(<16A	.
16cJJ)	.
(<16fLL	.
16c)	.
(<16A	.
16cJJ)	.
=27	=27
4f	.
4r	.
=28:|!|:	=28:|!|:
!!linebreak:original
2r	.
=29	=29
2r	.
=30	=30
2aa	.
=31	=31
(>16aaLL	.
16bb-)	.
(>16aa	.
16bb-JJ)	.
(>16cccLL	.
16aa)	.
(>16ff	.
16ee-JJ)	.
=32	=32
4dd	.
4r	.
=33	=33
2r	.
=34	=34
2bb-	.
=35	=35
(>16bb-LL	.
16aa)	.
(>16bb-	.
16cccJJ)	.
16ddd'LL	.
(16ff	.
16ee-	.
16ddJJ)	.
=36	=36
4ee-	.
4r	.
=37	=37
16f'LL	.
(>16ee-	.
16dd	.
16ee-JJ)	.
16ccc'LL	.
(>16ee-	.
16dd	.
16ccJJ)	.
=38	=38
4dd	.
4r	.
=39	=39
16f'LL	p
(>16dd	.
16cc	.
16ddJJ)	.
16bb-'LL	.
(>16dd	.
16cc	.
16b-JJ)	.
=40	=40
!!linebreak:original
(>16aLL	.
16b-	.
16cc	.
16ddJJ)	.
(>16ee-LL	.
16cc)	.
(>16dd	.
16b-JJ)	.
=41	=41
4cc	.
4r	.
=42	=42
4.ff	.
(>24ggLL	.
24ff'	.
24ee-JJ)	.
=43	=43
4.dd	.
(>24ee-LL	.
24dd	.
24ccJJ)	.
=44	=44
8b-'L	.
8a'	.
8b-'	.
8cc'J	.
=45	=45
8dd'L	.
8ee-'	.
8dd'	.
8cc'J	.
=46	=46
8b-'L	f
8a'	.
8g'	.
8f'J	.
=47	=47
8e-ML	.
8dJ	.
4r	.
=48	=48
2r	.
=49	=49
(<16e-LL	.
16g	.
16b-)	.
16ee-JJ	.
16gg'LL	.
(>16ee-	.
16dd	.
16ee-JJ)	.
=50	=50
4ff	.
4r	.
=51	=51
!!linebreak:original
(>16b-LL	.
16dd	.
16ff	.
16bb-JJ)	.
16dddLL	.
(>16bb-	.
16ff	.
16ddJJ)	.
=52	=52
4ee-	.
4r	.
=53	=53
(<16ALL	.
16c)	.
(<16f	.
16aJJ)	.
16cc'LL	.
(>16ee-	.
16dd	.
16ccJJ)	.
=54	=54
16dd'LL	.
(>16b-	.
16a	.
16b-JJ)	.
16ee-'LL	.
(>16b-	.
16a	.
16b-JJ)	.
=55	=55
16ff'LL	.
(>16b-	.
16a	.
16b-JJ)	.
16gg'LL	.
(>16b-	.
16a	.
16b-JJ)	.
=56	=56
16ff'LL	.
(>16b-	.
16a	.
16b-JJ)	.
16gg'LL	.
(>16b-	.
16a	.
16b-JJ)	.
=57	=57
(>16ffLL	.
16dd	.
16cc	.
16b-TJJ)	.
4cc	.
=58	=58
4b-	.
4r	.
=59	=59
!!linebreak:original
2r	.
=60	=60
8r	.
8b-L	p
8b-	.
8b-J	.
=61	=61
(>24aLL	.
24b-	.
24ccJ)	.
8b-J	.
8ccL	.
8ddJ	.
=62	=62
(>24ccLL	.
24dd	.
24ee-J)	.
8ddJ	.
4r	.
=63	=63
2r	.
=64	=64
8r	.
8ffL	.
8ff	f
8ffJ	.
=65	=65
(>24ggLL	.
24aa	.
24bb-JJ)	.
8dd	.
(>24ee-LL	.
24ff	.
24ggJJ)	.
8cc	.
=66	=66
(>24ddLL	.
24ee-	.
24ffJJ)	.
8b-	.
4ccT	.
=67	=67
(<16b-LL	.
16f)	.
(<16d	.
16fJJ)	.
(<16b-LL	.
16f)	.
(<16d	.
16fJJ)	.
=68	=68
4b-	.
4r	.
=:|!	=:|!
*-	*-
!!!RDF**kern: > = above
!!!RDF**kern: < = below
